X: 30
T: Duncan on the Plainstones
R:Reel
C:J. Scott Skinner
S:MacDonald - Skye Collection
N:pg.56
M:C
L:1/8
K:D
G|F>D D/D/D (FG) AB|=cBcG ECEG|F>D D/D/D (FG) AB|dABG FDD:|
g|fa^gb adfd|Be^df eAcA|fa^gb adfd|Bdce fddg|fa^gb adfd|Be^df eAce|
fedc BAGF|EDCB, A,GFE||


